polaris-icons/icons/new-icons/MarketsMajor.svg

<svg width="20" height="20" viewBox="0 0 20 20" fill="none" xmlns="http://www.w3.org/2000/svg">
<path fill-rule="evenodd" clip-rule="evenodd" d="M8.65319 5.49292C9.09339 4.33189 9.60385 4 10 4C10.2886 4 10.6163 4.15851 10.9582 4.69475C11.304 5.23716 11.59 6.06591 11.7744 7.12824C11.8452 7.53635 12.2335 7.80978 12.6416 7.73896C13.0497 7.66813 13.3231 7.27988 13.2523 6.87176C13.1065 6.03144 12.8918 5.25092 12.5963 4.5892C13.8005 5.16801 14.7821 6.13718 15.3767 7.33377C15.5611 7.70471 16.0112 7.85597 16.3821 7.67164C16.7531 7.4873 16.9043 7.03716 16.72 6.66623C15.4936 4.19851 12.9459 2.5 10 2.5C5.85786 2.5 2.5 5.85786 2.5 10C2.5 14.1421 5.85786 17.5 10 17.5C10.4142 17.5 10.75 17.1642 10.75 16.75C10.75 16.3358 10.4142 16 10 16C9.60385 16 9.09339 15.6681 8.65319 14.5071C8.48498 14.0634 8.34657 13.542 8.24113 12.9595C8.80691 12.9866 9.396 13.0002 10 13.0002C10.4143 13.0002 10.75 12.6644 10.75 12.2502C10.75 11.836 10.4143 11.5002 10 11.5002C9.32197 11.5002 8.66874 11.4824 8.05267 11.4476C8.0179 10.986 8 10.5016 8 10C8 9.63979 8.00923 9.28851 8.02731 8.94815C8.66188 8.98278 9.32392 8.99974 10 8.99974C10.4142 8.99974 10.75 8.66395 10.75 8.24974C10.75 7.83552 10.4142 7.49974 10 7.49974C9.36214 7.49974 8.75032 7.48397 8.17341 7.45367C8.28423 6.70289 8.44614 6.03901 8.65319 5.49292ZM7.25062 4.96114C6.99015 5.6481 6.79926 6.45358 6.67517 7.33387C5.9513 7.25352 5.31584 7.1456 4.7948 7.01369C5.39783 5.96486 6.30875 5.11552 7.4042 4.58904C7.34929 4.71142 7.29814 4.83579 7.25062 4.96114ZM6.53166 8.82721C5.65598 8.73064 4.86772 8.59254 4.21281 8.41047C4.07408 8.91673 4 9.44971 4 10C4 10.2637 4.01701 10.5234 4.04999 10.7781C4.54266 10.9772 5.2788 11.1521 6.22575 11.2793C6.32867 11.2931 6.43354 11.3063 6.54026 11.3189C6.51333 10.889 6.5 10.448 6.5 10C6.5 9.60265 6.51049 9.21076 6.53166 8.82721ZM4.54244 12.4965C5.12617 13.7705 6.14286 14.8048 7.4042 15.411C7.34929 15.2886 7.29814 15.1642 7.25062 15.0389C7.00797 14.3989 6.8257 13.656 6.70157 12.8457C6.46976 12.8219 6.24431 12.7953 6.02598 12.7659C5.49736 12.6949 4.99714 12.6061 4.54244 12.4965Z" fill="#4A4A4A"/>
<path d="M15.25 16H13.25C12.8358 16 12.5 16.3358 12.5 16.75C12.5 17.1642 12.8358 17.5 13.25 17.5H14V17.75C14 18.1642 14.3358 18.5 14.75 18.5C15.1642 18.5 15.5 18.1642 15.5 17.75V17.4863C16.625 17.3619 17.5 16.4081 17.5 15.25C17.5 14.0074 16.4926 13 15.25 13H14.75C14.3358 13 14 12.6642 14 12.25C14 11.8358 14.3358 11.5 14.75 11.5H16.75C17.1642 11.5 17.5 11.1642 17.5 10.75C17.5 10.3358 17.1642 10 16.75 10H16V9.25C16 8.83579 15.6642 8.5 15.25 8.5C14.8358 8.5 14.5 8.83579 14.5 9.25V10C14.5 10.0046 14.5 10.0092 14.5001 10.0137C13.3751 10.138 12.5 11.0918 12.5 12.25C12.5 13.4926 13.5074 14.5 14.75 14.5H15.25C15.6642 14.5 16 14.8358 16 15.25C16 15.6642 15.6642 16 15.25 16Z" fill="#4A4A4A"/>
</svg>

<svg viewBox="0 0 20 20" xmlns="http://www.w3.org/2000/svg"><path fill-rule="evenodd" d="M8.653 5.493c.44-1.161.95-1.493 1.347-1.493.289 0 .616.159.958.695.346.542.632 1.37.816 2.433a.75.75 0 0 0 1.478-.256c-.146-.84-.36-1.621-.656-2.283a6.025 6.025 0 0 1 2.78 2.745.75.75 0 0 0 1.344-.668 7.5 7.5 0 1 0-6.72 10.834.75.75 0 0 0 0-1.5c-.396 0-.907-.332-1.347-1.493a8.863 8.863 0 0 1-.412-1.547c.566.027 1.155.04 1.759.04a.75.75 0 1 0 0-1.5c-.678 0-1.331-.018-1.947-.052a19.852 19.852 0 0 1-.025-2.5c.634.035 1.296.052 1.972.052a.75.75 0 0 0 0-1.5c-.638 0-1.25-.016-1.827-.046.111-.751.273-1.415.48-1.961Zm-1.402-.532c-.26.687-.452 1.493-.576 2.373-.724-.08-1.36-.188-1.88-.32a6.026 6.026 0 0 1 2.61-2.425 6.784 6.784 0 0 0-.154.372Zm-.72 3.866c-.875-.096-1.663-.234-2.318-.417a6.007 6.007 0 0 0-.163 2.368c.493.2 1.229.374 2.176.501l.314.04a21.13 21.13 0 0 1-.008-2.492Zm-1.989 3.67a6.024 6.024 0 0 0 2.862 2.914 6.807 6.807 0 0 1-.153-.372c-.243-.64-.425-1.383-.55-2.193-.231-.024-.457-.05-.675-.08a14.799 14.799 0 0 1-1.484-.27Z" fill="#5C5F62"/><path d="M15.25 16h-2a.75.75 0 0 0 0 1.5h.75v.25a.75.75 0 0 0 1.5 0v-.264a2.25 2.25 0 0 0-.25-4.486h-.5a.75.75 0 0 1 0-1.5h2a.75.75 0 0 0 0-1.5h-.75v-.75a.75.75 0 0 0-1.5 0v.764a2.25 2.25 0 0 0 .25 4.486h.5a.75.75 0 0 1 0 1.5Z" fill="#5C5F62"/></svg>
